X:7562
T:Tilt the Tankard
O:england
R:Jig
M:6/8
A:Westmorland
N:P4 1/3
K:F
F3 fgf|e2c d2e|f2a gec|d2e fgf|A2f dcB|A2GF3:|
|:a2f d2f|agf g2e|fce gfe|f2e d2f|fga g2e|cde f3:|


